website/static/img/drink-pin.svg

<?xml version="1.0" encoding="UTF-8" standalone="no"?>
<svg width="37px" height="33px" viewBox="0 0 37 33" version="1.1" xmlns="http://www.w3.org/2000/svg" xmlns:xlink="http://www.w3.org/1999/xlink">
    <!-- Generator: Sketch 45.1 (43504) - http://www.bohemiancoding.com/sketch -->
    <title>Group</title>
    <desc>Created with Sketch.</desc>
    <defs></defs>
    <g id="Welcome" stroke="none" stroke-width="1" fill="none" fill-rule="evenodd">
        <g id="Trust-Page" transform="translate(-971.000000, -3454.000000)">
            <g id="Group" transform="translate(971.821674, 3454.249512)">
                <polygon id="Shape" fill="#95C9A1" points="8.87379213 32.2051531 0.00896617752 16.1450875 8.87379213 0.0856631758 26.6040571 0.0856631758 35.4688831 16.1450875 26.6040571 32.2051531"></polygon>
                <path d="M23.0958333,7.67416076 C22.8153128,7.3955244 22.407623,7.38547522 22.3599345,7.38547522 L12.9896144,7.38547522 C12.5080542,7.38547522 12.1171957,7.76917119 12.1171957,8.24148267 L12.1171957,10.6697301 C12.1171957,14.0864514 14.2940348,16.9148389 17.1721752,17.2437211 C17.1787207,17.2455482 17.2563314,17.2555974 17.3825656,17.2629059 L17.3825656,24.0360535 L15.2524799,24.0360535 C15.0551805,24.0360535 14.8952838,24.1931861 14.8952838,24.3859477 C14.8952838,24.5787092 15.0542454,24.7340147 15.2524799,24.7340147 L20.2289137,24.7340147 C20.4271482,24.7340147 20.5870449,24.5787092 20.5870449,24.3859477 C20.5870449,24.1931861 20.4271482,24.0360535 20.2289137,24.0360535 L18.0969578,24.0360535 L18.0969578,17.2519432 C18.1839192,17.2446347 18.2708806,17.2409804 18.3690627,17.2309313 C21.1125533,16.8627658 23.1575478,14.0782293 23.3426914,10.4504752 L23.3426914,8.29995063 C23.3445615,8.05054824 23.2585352,7.83494765 23.0958333,7.67416076 Z M12.9600659,9.81372261 L12.9600659,8.23965555 C12.9600659,8.15104005 13.031131,8.08435003 13.1180924,8.08435003 L22.4828021,8.08252291 C22.6660755,8.08800428 22.7577122,8.1592621 22.755842,8.29355569 L22.755842,8.29538282 L22.755842,9.81737686 L12.9600659,9.81372261 Z" id="Shape" fill="#FFFFFF"></path>
            </g>
        </g>
    </g>
</svg>

<svg width="37" height="33" xmlns="http://www.w3.org/2000/svg"><g id="Welcome" stroke="none" stroke-width="1" fill="none" fill-rule="evenodd"><g id="Trust-Page" transform="translate(-971 -3454)"><g id="Group" transform="translate(971.822 3454.25)"><path id="Shape" fill="#95C9A1" d="M8.874 32.205L.009 16.145 8.874.085h17.73l8.865 16.06-8.865 16.06z"/><path d="M23.096 7.674c-.28-.278-.688-.289-.736-.289h-9.37a.865.865 0 0 0-.873.856v2.429c0 3.416 2.177 6.245 5.055 6.574.007.002.084.012.21.019v6.773h-2.13a.354.354 0 0 0-.357.35c0 .193.16.348.357.348h4.977a.353.353 0 0 0 .358-.348c0-.193-.16-.35-.358-.35h-2.132v-6.784c.087-.007.174-.011.272-.021 2.744-.368 4.789-3.153 4.974-6.78V8.3a.847.847 0 0 0-.247-.626zM12.96 9.814V8.24c0-.089.071-.156.158-.156l9.365-.001c.183.005.275.076.273.21v1.524l-9.796-.003z" id="Shape" fill="#FFF"/></g></g></g></svg>
